svgs/regular/booth-curtain.svg

<svg xmlns="http://www.w3.org/2000/svg" viewBox="0 0 512 512"><!--! Font Awesome Pro 6.6.0 by @fontawesome - https://fontawesome.com License - https://fontawesome.com/license (Commercial License) Copyright 2024 Fonticons, Inc. --><path d="M56 48c-4.4 0-8 3.6-8 8l0 432c0 13.3-10.7 24-24 24s-24-10.7-24-24L0 56C0 25.1 25.1 0 56 0l88 0 0 48L56 48zM416 0l40 0c30.9 0 56 25.1 56 56l0 40 0 296 0 96c0 13.3-10.7 24-24 24s-24-10.7-24-24l0-28.1c-7.5 2.7-15.6 4.1-24 4.1c-18.4 0-35.3-6.9-48-18.3c-12.7 11.4-29.6 18.3-48 18.3s-35.3-6.9-48-18.3c-12.7 11.4-29.6 18.3-48 18.3c-39.8 0-72-32.2-72-72l0-360c0-17.7 14.3-32 32-32l64 0 48 0 48 0 7.8 0L416 0zM368 48l-48 0 0 344c0 13.3 10.7 24 24 24s24-10.7 24-24l0-344zm96 344l0-296 0-40c0-4.4-3.6-8-8-8l-40 0 0 48 0 296c0 13.3 10.7 24 24 24s24-10.7 24-24zm-240 0c0 13.3 10.7 24 24 24s24-10.7 24-24l0-344-48 0 0 344z"/></svg>

<svg xmlns="http://www.w3.org/2000/svg" viewBox="0 0 512 512"><!--! Font Awesome Pro 6.4.2 by @fontawesome - https://fontawesome.com License - https://fontawesome.com/license (Commercial License) Copyright 2023 Fonticons, Inc. --><path d="M56 48c-4.4 0-8 3.6-8 8V488c0 13.3-10.7 24-24 24s-24-10.7-24-24V56C0 25.1 25.1 0 56 0h.2 .2 .2 .2 .2 .2 .2 .2 .2 .2H58h.2 .2 .2 .2 .2H59h.2 .2 .2 .2 .2 .2 .2 .2 .2 .2H61h.2 .2 .2 .2 .2 .2 .2 .2 .2 .2H63h.2 .2 .2 .2H64h.2 .2 .2 .2 .2 .2 .2 .2 .2 .2H66h.2 .2 .2 .2 .2 .2 .2 .2 .2 .2H68h.2 .2 .2 .2H69h.2 .2 .2 .2 .2 .2 .2 .2 .2 .2H71h.2 .2 .2 .2H72h.2 .2 .2 .2 .2 .2 .2 .2 .2 .2 .2 .2 .2 .2 .2H75h.2 .2 .2 .2 .2 .2 .2 .2 .2 .2 .2 .2 .2 .2 .2H78h.2 .2 .2 .2H79h.2 .2 .2 .2 .2 .2 .2 .2 .2 .2 .2 .2 .2 .2 .2H82h.2 .2 .2 .2H83h.2 .2 .2 .2 .2 .2 .2 .2 .2 .2 .2 .2 .2 .2 .2H86h.2 .2 .2 .2H87h.2 .2 .2 .2 .2 .2 .2 .2 .2 .2 .2 .2 .2 .2 .2H90h.2 .2 .2 .2H91h.2 .2 .2 .2 .2 .2 .2 .2 .2 .2 .2 .2 .2 .2 .2H94h.2 .2 .2 .2 .2 .2 .2 .2 .2 .2 .2 .2 .2 .2 .2H97h.2 .2 .2 .2H98h.2 .2 .2 .2 .2 .2 .2 .2 .2 .2 .2 .2 .2 .2 .2 .2 .2 .2 .2 .2 .2 .2 .2 .2 .2 .2 .2 .2 .2 .2 .2 .2 .2 .2 .2 .2 .2 .2 .2 .2 .2 .2 .2 .2 .2 .2 .2 .2 .2 .2 .2 .2 .2 .2 .2 .2 .2 .2 .2 .2 .2 .2 .2 .2 .2 .2 .2 .2 .2 .2 .2 .2 .2 .2 .2 .2 .2 .2 .2 .2 .2 .2 .2 .2 .2 .2 .2 .2 .2 .2 .2 .2 .2 .2 .2 .2 .2 .2 .2 .2 .2 .2 .2 .2 .2 .2 .2 .2 .2 .2 .2 .2 .2 .2 .2 .2 .2 .2 .2 .2 .2 .2 .2 .2 .2 .2 .2 .2 .2 .2 .2 .2 .2 .2 .2 .2 .2 .2 .2 .2 .2 .2 .2 .2 .2 .2 .2 .2 .2 .2 .2 .2 .2 .2 .2 .2 .2 .2 .2 .2 .2 .2 .2 .2 .2 .2 .2 .2 .2 .2 .2 .2 .2 .2 .2 .2 .2 .2 .2 .2 .2 .2 .2 .2 .2 .2 .2 .2 .2 .2 .2 .2 .2 .2 .2 .1 .1 .1 .1 .1 .1 .1 .1 .1 .1 .1 .1 .1 .1 .1 .1 .1 .1 .1 .1 .1 .1 .1 .1 .1 .1 .1 .1 .1 .1 .1 .1 .1 .1 .1 .1 .1 .1 .1 .1 .1 .1 .1 .1 .1 .1 .1 .1 .1 .1 .1 .1 .1 .1 .1 .1 .1 .1 .1 .1 .1 .1 .1 .1 .1 .1 .1 .1 .1 .1 .1 .1 .1 .1 .1 .1 .1 .1 .1 .1 .1 .1 .1 .1 .1 .1 .1 .1 .1 .1 .1 .1 .1V48h-.1-.1-.1-.1-.1-.1-.1-.1-.1-.1-.1-.1-.1-.1-.1-.1H142h-.1-.1-.1-.1-.1-.1-.1H141h-.1-.1-.1-.1-.1-.1-.1-.1-.1-.1-.1-.1-.1-.1H139h-.1-.1-.1-.1-.1-.1-.1H138h-.1-.1-.1-.1-.1-.1H137h-.1-.1-.1-.1-.1-.1H136h-.1-.1-.1-.1-.1-.1H135h-.1-.1-.1-.1-.1-.1H134h-.1-.1-.1-.1-.1-.1H133h-.1-.1-.1-.1-.1-.1H132h-.1-.1-.1-.2-.2-.2-.2-.2-.2-.2-.2-.2H130h-.2-.2-.2-.2-.2-.2-.2-.2-.2-.2-.2-.2H128h-.2-.2-.2-.2-.2-.2-.2-.2-.2-.2-.2-.2H126h-.2-.2-.2-.2-.2H125h-.2-.2-.2-.2-.2H124h-.2-.2-.2-.2-.2H123h-.2-.2-.2-.2-.2H122h-.2-.2-.2-.2-.2H121h-.2-.2-.2-.2-.2H120h-.2-.2-.2-.2-.2H119h-.2-.2-.2-.2-.2H118h-.2-.2-.2-.2-.2H117h-.2-.2-.2-.2-.2-.2-.2-.2-.2-.2-.2-.2-.2-.2-.2-.2H114h-.2-.2-.2-.2-.2-.2-.2-.2-.2-.2-.2-.2-.2-.2-.2-.2H111h-.2-.2-.2-.2-.2-.2-.2-.2-.2-.2H109h-.2-.2-.2-.2-.2-.2-.2-.2-.2-.2H107h-.2-.2-.2-.2-.2-.2-.2-.2-.2-.2H105h-.2-.2-.2-.2-.2-.2-.2-.2-.2-.2H103h-.2-.2-.2-.2-.2-.2-.2-.2-.2-.2-.2-.2-.2-.2-.2H100h-.2-.2-.2-.2-.2-.2-.2-.2-.2-.2H98h-.2-.2-.2-.2H97h-.2-.2-.2-.2-.2-.2-.2-.2-.2-.2-.2-.2-.2-.2-.2H94h-.2-.2-.2-.2-.2-.2-.2-.2-.2-.2-.2-.2-.2-.2-.2H91h-.2-.2-.2-.2H90h-.2-.2-.2-.2-.2-.2-.2-.2-.2-.2-.2-.2-.2-.2-.2H87h-.2-.2-.2-.2H86h-.2-.2-.2-.2-.2-.2-.2-.2-.2-.2-.2-.2-.2-.2-.2H83h-.2-.2-.2-.2H82h-.2-.2-.2-.2-.2-.2-.2-.2-.2-.2-.2-.2-.2-.2-.2H79h-.2-.2-.2-.2H78h-.2-.2-.2-.2-.2-.2-.2-.2-.2-.2-.2-.2-.2-.2-.2H75h-.2-.2-.2-.2-.2-.2-.2-.2-.2-.2-.2-.2-.2-.2-.2H72h-.2-.2-.2-.2H71h-.2-.2-.2-.2-.2-.2-.2-.2-.2-.2H69h-.2-.2-.2-.2H68h-.2-.2-.2-.2-.2-.2-.2-.2-.2-.2H66h-.2-.2-.2-.2-.2-.2-.2-.2-.2-.2H64h-.2-.2-.2-.2H63h-.2-.2-.2-.2-.2-.2-.2-.2-.2-.2H61h-.2-.2-.2-.2-.2-.2-.2-.2-.2-.2H59h-.2-.2-.2-.2-.2H58h-.2-.2-.2-.2-.2-.2-.2-.2-.2-.2H56zM416 0h40c30.9 0 56 25.1 56 56V96 392v96c0 13.3-10.7 24-24 24s-24-10.7-24-24V459.9c-7.5 2.7-15.6 4.1-24 4.1c-18.4 0-35.3-6.9-48-18.3c-12.7 11.4-29.6 18.3-48 18.3s-35.3-6.9-48-18.3c-12.7 11.4-29.6 18.3-48 18.3c-39.8 0-72-32.2-72-72V32c0-17.7 14.3-32 32-32h64 48 48 7.8H416zM368 48H320V392c0 13.3 10.7 24 24 24s24-10.7 24-24V48zm96 344V96 56c0-4.4-3.6-8-8-8H416V96 392c0 13.3 10.7 24 24 24s24-10.7 24-24zm-240 0c0 13.3 10.7 24 24 24s24-10.7 24-24V48H224V392z"/></svg>
